web-magabank/image/home/icon-transacao.svg

<svg width="15" height="17" viewBox="0 0 15 17" fill="none" xmlns="http://www.w3.org/2000/svg">
<path d="M10.4249 16.7582C10.4249 16.6739 10.4163 16.5915 10.4 16.512C10.2861 15.9553 9.79353 15.5366 9.20318 15.5366H6.95807C6.92249 15.5366 6.88691 15.5354 6.85156 15.533C6.71004 15.5235 6.57076 15.4949 6.43743 15.4484C6.33743 15.4136 6.24073 15.3686 6.149 15.3139L0.726101 12.0996C0.647227 12.0527 0.578553 11.9951 0.520883 11.93C0.42474 11.8214 0.358958 11.6916 0.326749 11.5539C0.313818 11.4989 0.306348 11.4425 0.30434 11.3858C0.303376 11.3575 0.303778 11.329 0.305625 11.3005C0.314781 11.1583 0.359279 11.0162 0.44233 10.8876C0.445623 10.8825 0.448997 10.8773 0.45229 10.8722C0.470763 10.8437 0.491084 10.817 0.512209 10.7913C0.518313 10.7838 0.524739 10.7768 0.531084 10.7696C0.54771 10.7507 0.565059 10.7327 0.583051 10.7156C0.589396 10.7096 0.595581 10.7034 0.602007 10.6975C0.626103 10.6759 0.651082 10.6555 0.677186 10.6369C0.681042 10.6342 0.685138 10.6319 0.688993 10.6292C0.711804 10.6136 0.735338 10.5991 0.759354 10.5858C0.767627 10.5812 0.77598 10.5768 0.784414 10.5725C0.806743 10.5611 0.829474 10.5507 0.852686 10.5413C0.859513 10.5385 0.8661 10.5354 0.873007 10.5328C0.902565 10.5216 0.932765 10.512 0.963287 10.5042C0.969954 10.5025 0.976861 10.5013 0.983608 10.4997C1.00819 10.494 1.03309 10.4894 1.05815 10.4858C1.06754 10.4845 1.07694 10.4833 1.08642 10.4822C1.11284 10.4793 1.13943 10.4777 1.16618 10.4773C1.17172 10.4773 1.17726 10.4767 1.1828 10.4768C1.21308 10.4769 1.24352 10.4787 1.27389 10.4821C1.28176 10.483 1.28955 10.4845 1.29742 10.4856C1.32015 10.4887 1.34288 10.4927 1.36553 10.4977C1.37565 10.5 1.38577 10.5026 1.39589 10.5052C1.41726 10.5107 1.43846 10.5173 1.45959 10.5246C1.46874 10.5277 1.4779 10.5306 1.48698 10.534C1.51653 10.5454 1.54585 10.5579 1.5746 10.5727L4.94693 12.3602L5.04669 12.413L6.0776 12.9595C6.46619 13.1596 6.89703 13.2641 7.33421 13.2641H9.29627C9.46382 13.2641 9.5982 13.1221 9.58559 12.9518C9.57667 12.8318 9.48816 12.7321 9.37386 12.694L7.03502 11.9144C6.69622 11.8015 6.47518 11.4683 6.51213 11.1039C6.55245 10.7059 6.9061 10.4128 7.3061 10.4128C7.80408 10.4128 8.30086 10.4609 8.78961 10.5564L13.2242 11.4238C13.5925 11.4959 13.9161 11.6776 14.1634 11.9311C14.4814 12.2571 14.6736 12.7016 14.6736 13.1843V16.7581H14.5642H10.4249V16.7582ZM2.40134 7.10677H3.03049V9.98111L5.30275 11.1855C5.30283 11.1184 5.3062 11.0508 5.31311 10.9827C5.4156 9.97107 6.27221 9.20811 7.30578 9.20811C7.88006 9.20811 8.457 9.26401 9.02053 9.37421L11.9728 9.95164V7.10677H12.7578C13.0023 7.10677 13.2226 6.9589 13.3153 6.73264C13.4079 6.5063 13.3545 6.24646 13.1802 6.07498L7.95942 0.939302C7.7236 0.707417 7.34497 0.708863 7.111 0.942756L1.97532 6.07843C1.80304 6.25072 1.75147 6.50983 1.84472 6.73489C1.93805 6.95995 2.15765 7.10677 2.40134 7.10677Z" fill="white"/>
</svg>

<svg width="15" height="17" fill="none" xmlns="http://www.w3.org/2000/svg"><path d="M10.425 16.758a1.222 1.222 0 00-1.222-1.222H6.958a1.574 1.574 0 01-.809-.222L.726 12.1a.863.863 0 01-.284-1.212l.01-.016a.89.89 0 01.06-.08l.02-.022a.84.84 0 01.051-.054l.019-.018a.865.865 0 01.075-.061l.012-.008a.88.88 0 01.164-.088l.02-.008c.03-.011.06-.021.09-.029l.02-.004a.891.891 0 01.183-.023h.017c.03 0 .06.002.09.005l.024.004a.847.847 0 01.163.039l.027.009c.03.011.059.024.088.039l3.372 1.787.1.053 1.03.546c.39.2.82.305 1.257.305h1.962a.29.29 0 00.29-.312.303.303 0 00-.212-.258l-2.339-.78a.77.77 0 01-.523-.81c.04-.398.394-.691.794-.691.498 0 .995.048 1.484.143l4.434.868a1.79 1.79 0 011.45 1.76v3.574h-4.25zM2.4 7.107h.63V9.98l2.272 1.204a1.984 1.984 0 012.003-1.977c.574 0 1.151.056 1.715.166l2.952.578V7.107h.785a.603.603 0 00.422-1.032L7.96.939a.602.602 0 00-.849.004L1.975 6.078a.602.602 0 00.426 1.029z" fill="#fff"/></svg>
